X:102
T:Anglais efter Martin Andersson
T:(Sv. L. Halland 102)
O:Lindome, Halland
S:Albert Drakenberg
R:Engelska
B:Svenska Låtar Halland
Z:Till abc Jonas Brunskog
M:2/4
L:1/8
K:A
|:ac' [Ae][Ae]|Ad c2|(Ac) EE|A/2B/2c/2d/2 e2|
ac' [Ae][Ae]|Ad c2|AB/2c/2 de/2f/2|1)ga a2:|2)ga a (A|
|:c)e/2c/2 A/2c/2e/2(A/2|c)e/2A/2 A/2c/2e/2(A/2|d)f/2f/2 B/2d/2f/2(B/2|d)f/2d/2 B/2d/2f|
ce/2c/2 A/2c/2e/2(A/2|c)e/2A/2 A/2c/2e/2(A/2|d)e/2f/2 gf/2g/2|1)ga a (A:|2)ga a2|

